!!!OTL: ハルノヒ
**kern	**text	**kern	**text	**text	**kern	**text	**kern	**text	**kern	**text	**text
*part5	*part5	*part4	*part4	*part4	*part3	*part3	*part2	*part2	*part1	*part1	*part1
*staff5	*staff5	*staff4	*staff4	*staff4	*staff3	*staff3	*staff2	*staff2	*staff1	*staff1	*staff1
*I"ピアノ	*	*I"ピアノ	*	*	*I"ピアノ	*	*I"ピアノ	*	*I"Piano	*	*
*I'Pno.	*	*I'Pno.	*	*	*I'Pno.	*	*I'Pno.	*	*I'Pno.	*	*
*clefF4	*	*clefGv2	*	*	*clefG2	*	*clefG2	*	*clefG2	*	*
*k[f#c#g#]	*	*k[f#c#g#]	*	*	*k[f#c#g#]	*	*k[f#c#g#]	*	*k[f#c#g#]	*	*
*M4/4	*	*M4/4	*	*	*M4/4	*	*M4/4	*	*M4/4	*	*
*MM107	*	*MM107	*	*	*MM107	*	*MM107	*	*MM107	*	*
=1	=1	=1	=1	=1	=1	=1	=1	=1	=1	=1	=1
4AA	dm	1c#	uh	.	1e	uh	4a	tu	1r	.	.
8.AAL	.	.	.	.	.	.	8r	.	.	.	.
.	.	.	.	.	.	.	8b	lu	.	.	.
16AAJk	.	.	.	.	.	.	.	.	.	.	.
16r	.	.	.	.	.	.	8r	.	.	.	.
16AAKL	.	.	.	.	.	.	.	.	.	.	.
8AAJ	.	.	.	.	.	.	4.cc#	tu	.	.	.
8AAL	.	.	.	.	.	.	.	.	.	.	.
8AAJ	.	.	.	.	.	.	.	.	.	.	.
=2	=2	=2	=2	=2	=2	=2	=2	=2	=2	=2	=2
4C#	.	1B	uh	.	1g#	uh	4.ee	tu	1r	.	.
8.C#L	.	.	.	.	.	.	.	.	.	.	.
.	.	.	.	.	.	.	4cc#	tu	.	.	.
16C#Jk	.	.	.	.	.	.	.	.	.	.	.
16r	.	.	.	.	.	.	.	.	.	.	.
16C#KL	.	.	.	.	.	.	.	.	.	.	.
8C#J	.	.	.	.	.	.	4b	lu	.	.	.
8C#L	.	.	.	.	.	.	.	.	.	.	.
8C#J	.	.	.	.	.	.	8cc#	lu	.	.	.
=3	=3	=3	=3	=3	=3	=3	=3	=3	=3	=3	=3
4D	.	1d	uh	.	1f#	uh	1a	lu	1r	.	.
8DL	.	.	.	.	.	.	.	.	.	.	.
8DJ	.	.	.	.	.	.	.	.	.	.	.
4BB	.	.	.	.	.	.	.	.	.	.	.
8BBL	.	.	.	.	.	.	.	.	.	.	.
8BBJ	.	.	.	.	.	.	.	.	.	.	.
=4	=4	=4	=4	=4	=4	=4	=4	=4	=4	=4	=4
4E	.	8r	.	.	8r	.	1b	uh	1r	.	.
.	.	8dL	lu	.	8f#L	lu	.	.	.	.	.
8.EL	.	8c#	.	.	8e	.	.	.	.	.	.
.	.	8BJ	.	.	8dJ	.	.	.	.	.	.
16EJk	.	.	.	.	.	.	.	.	.	.	.
16r	.	8AL	.	.	8c#L	.	.	.	.	.	.
16EKL	.	.	.	.	.	.	.	.	.	.	.
8EJ	.	8G#	.	.	8B	.	.	.	.	.	.
8EL	.	8F#	.	.	8A	.	.	.	.	.	.
8EJ	.	8DJ	.	.	8F#J	.	.	.	.	.	.
=5	=5	=5	=5	=5	=5	=5	=5	=5	=5	=5	=5
4AA	.	1c#	uh	.	8r	.	1a	uh	1f#	uh	.
.	.	.	.	.	8AL	tu	.	.	.	.	.
8.AAL	.	.	.	.	8B	lu	.	.	.	.	.
.	.	.	.	.	[8eJ	lu	.	.	.	.	.
16AAJk	.	.	.	.	.	.	.	.	.	.	.
16r	.	.	.	.	2e]	.	.	.	.	.	.
16AAKL	.	.	.	.	.	.	.	.	.	.	.
8AAJ	.	.	.	.	.	.	.	.	.	.	.
8AAL	.	.	.	.	.	.	.	.	.	.	.
8AAJ	.	.	.	.	.	.	.	.	.	.	.
=6	=6	=6	=6	=6	=6	=6	=6	=6	=6	=6	=6
4C#	.	1d	uh	.	8r	.	1g#	uh	1e	uh	.
.	.	.	.	.	8AL	.	.	.	.	.	.
8.C#L	.	.	.	.	8B	.	.	.	.	.	.
.	.	.	.	.	[8eJ	.	.	.	.	.	.
16C#Jk	.	.	.	.	.	.	.	.	.	.	.
16r	.	.	.	.	2e]	.	.	.	.	.	.
16C#KL	.	.	.	.	.	.	.	.	.	.	.
8C#J	.	.	.	.	.	.	.	.	.	.	.
8C#L	.	.	.	.	.	.	.	.	.	.	.
8C#J	.	.	.	.	.	.	.	.	.	.	.
=7	=7	=7	=7	=7	=7	=7	=7	=7	=7	=7	=7
4D	.	1d	uh	.	8r	.	1f#	uh	1d	uh	.
.	.	.	.	.	8AL	.	.	.	.	.	.
8DL	.	.	.	.	8B	.	.	.	.	.	.
16DL	.	.	.	.	[8eJ	.	.	.	.	.	.
16DJJ	.	.	.	.	.	.	.	.	.	.	.
4BB	.	.	.	.	2e]	.	.	.	.	.	.
8BBL	.	.	.	.	.	.	.	.	.	.	.
8BBJ	.	.	.	.	.	.	.	.	.	.	.
=8	=8	=8	=8	=8	=8	=8	=8	=8	=8	=8	=8
8r	.	8r	.	.	8r	.	8r	.	1r	.	.
8F#L	tu	8eL	tu	.	8AL	tu	8c#L	tu	.	.	.
8E	lu	8f#	lu	.	8B	lu	8d	lu	.	.	.
8DJ	lu	8bJ	lu	.	8eJ	lu	8g#J	lu	.	.	.
8C#L	tu	8b	tu	.	8e	tu	8g#	tu	.	.	.
8BB	lu	8r	.	.	8r	.	8r	.	.	.	.
8AA	tu	4b	tun	.	4e	tun	4g#	tun	.	.	.
8FF#J	lu	.	.	.	.	.	.	.	.	.	.
=9	=9	=9	=9	=9	=9	=9	=9	=9	=9	=9	=9
4AA	dm	1r	.	.	1r	.	1r	.	8r	.	.
.	.	.	.	.	.	.	.	.	8eL	き	.
8.AAL	.	.	.	.	.	.	.	.	8e	た	.
.	.	.	.	.	.	.	.	.	8eJ	せ	.
16AAJk	.	.	.	.	.	.	.	.	.	.	.
16r	.	.	.	.	.	.	.	.	8eL	ん	.
16AAKL	.	.	.	.	.	.	.	.	.	.	.
8AAJ	.	.	.	.	.	.	.	.	16dL	じゅ	.
.	.	.	.	.	.	.	.	.	[16c#JJ	え	.
8AAL	.	.	.	.	.	.	.	.	8c#L]	.	.
8AAJ	.	.	.	.	.	.	.	.	16BL	き	.
.	.	.	.	.	.	.	.	.	16dJJ	の	.
=10	=10	=10	=10	=10	=10	=10	=10	=10	=10	=10	=10
4C#	.	1r	.	.	1r	.	1r	.	[8c#	ー	.
.	.	.	.	.	.	.	.	.	2c#]	.	.
8.C#L	.	.	.	.	.	.	.	.	.	.	.
16C#Jk	.	.	.	.	.	.	.	.	.	.	.
16r	.	.	.	.	.	.	.	.	.	.	.
16C#KL	.	.	.	.	.	.	.	.	.	.	.
8C#J	.	.	.	.	.	.	.	.	4r	.	.
8C#L	.	.	.	.	.	.	.	.	.	.	.
8C#J	.	.	.	.	.	.	.	.	16eLL	プ	.
.	.	.	.	.	.	.	.	.	[16eJJ	ラッ	.
=11	=11	=11	=11	=11	=11	=11	=11	=11	=11	=11	=11
4D	.	1r	.	.	1r	.	1r	.	8eL]	.	.
.	.	.	.	.	.	.	.	.	16f#L	ト	.
.	.	.	.	.	.	.	.	.	[16dJJ	ホ	.
8.DL	.	.	.	.	.	.	.	.	8dL]	.	.
.	.	.	.	.	.	.	.	.	16c#L	ー	.
16DJk	.	.	.	.	.	.	.	.	[16dJJ	ム	.
16r	.	.	.	.	.	.	.	.	4d]	.	.
16DKL	.	.	.	.	.	.	.	.	.	.	.
8DJ	.	.	.	.	.	.	.	.	.	.	.
8DL	.	.	.	.	.	.	.	.	8r	.	.
8DJ	.	.	.	.	.	.	.	.	16r	.	.
.	.	.	.	.	.	.	.	.	16c#	ぎ	.
=12	=12	=12	=12	=12	=12	=12	=12	=12	=12	=12	=12
4BB	.	1r	.	.	1r	.	1r	.	8dL	ん	.
.	.	.	.	.	.	.	.	.	8c#	い	.
8BBL	.	.	.	.	.	.	.	.	8B	ろ	.
8BBJ	.	.	.	.	.	.	.	.	8AJ	の	.
4E	.	.	.	.	.	.	.	.	8c#L	か	.
.	.	.	.	.	.	.	.	.	8B	い	.
8EL	.	.	.	.	.	.	.	.	8A	さ	.
8EJ	.	.	.	.	.	.	.	.	8BJ	つ	.
=13	=13	=13	=13	=13	=13	=13	=13	=13	=13	=13	=13
4AA	.	1r	.	.	1r	.	1r	.	8r	.	.
.	.	.	.	.	.	.	.	.	8c#	お	.
8.AAL	.	.	.	.	.	.	.	.	8c#L	も	.
.	.	.	.	.	.	.	.	.	16BL	い	.
16AAJk	.	.	.	.	.	.	.	.	[16c#JJ	で	.
16r	.	.	.	.	.	.	.	.	8c#L]	.	.
16AAKL	.	.	.	.	.	.	.	.	.	.	.
8AAJ	.	.	.	.	.	.	.	.	8BJ	ば	.
8AAL	.	.	.	.	.	.	.	.	8c#L	な	.
8AAJ	.	.	.	.	.	.	.	.	16f#L	し	.
.	.	.	.	.	.	.	.	.	16f#JJ	と	.
=14	=14	=14	=14	=14	=14	=14	=14	=14	=14	=14	=14
4C#	.	1r	.	.	1r	.	1r	.	2.e	ー	.
8.C#L	.	.	.	.	.	.	.	.	.	.	.
16C#Jk	.	.	.	.	.	.	.	.	.	.	.
16r	.	.	.	.	.	.	.	.	.	.	.
16C#KL	.	.	.	.	.	.	.	.	.	.	.
8C#J	.	.	.	.	.	.	.	.	.	.	.
8C#L	.	.	.	.	.	.	.	.	8r	.	.
8C#J	.	.	.	.	.	.	.	.	16eLL	お	.
.	.	.	.	.	.	.	.	.	[16eJJ	も	.
=15	=15	=15	=15	=15	=15	=15	=15	=15	=15	=15	=15
4D	.	1r	.	.	1r	.	1r	.	8eL]	.	.
.	.	.	.	.	.	.	.	.	16f#L	.	い
.	.	.	.	.	.	.	.	.	[16dJJ	.	で
8.DL	.	.	.	.	.	.	.	.	8dL]	.	.
.	.	.	.	.	.	.	.	.	16c#L	.	ふ
16DJk	.	.	.	.	.	.	.	.	[16dJJ	.	かし
16r	.	.	.	.	.	.	.	.	4d]	.	.
16DKL	.	.	.	.	.	.	.	.	.	.	.
8DJ	.	.	.	.	.	.	.	.	.	.	.
8DL	.	.	.	.	.	.	.	.	8r	.	.
8DJ	.	.	.	.	.	.	.	.	16r	.	.
.	.	.	.	.	.	.	.	.	16c#	.	こ
=16	=16	=16	=16	=16	=16	=16	=16	=16	=16	=16	=16
4BB	.	1r	.	.	1r	.	1r	.	8dL	.	し
.	.	.	.	.	.	.	.	.	8c#	.	か
8BBL	.	.	.	.	.	.	.	.	8B	.	け
8BBJ	.	.	.	.	.	.	.	.	8AJ	.	た
4E	.	.	.	.	.	.	.	.	8c#L	.	ベ
.	.	.	.	.	.	.	.	.	8B	.	ン
8EL	.	.	.	.	.	.	.	.	8A	.	チ
8EJ	.	.	.	.	.	.	.	.	8BJ	.	で
=17	=17	=17	=17	=17	=17	=17	=17	=17	=17	=17	=17
8DL	ぼ	8c#L	ぼ	.	1r	.	1r	.	8AL	.	ぼ
8D	く	8B	く	.	.	.	.	.	8G#	.	く
8D	ら	8d	ら	.	.	.	.	.	8B	.	ら
[8EJ	は	[8c#J	は	.	.	.	.	.	[8AJ	.	は
8EL]	.	8c#L]	.	.	.	.	.	.	8AL]	.	.
8E	な	8B	な	.	.	.	.	.	8G#	.	な
8E	に	8B	に	.	.	.	.	.	8G#	.	に
8EJ	も	[8c#J	も	.	.	.	.	.	[8AJ	.	も
=18	=18	=18	=18	=18	=18	=18	=18	=18	=18	=18	=18
4F#	dm	8c#]	.	.	8eL	tu	1r	.	8A]	.	.
.	.	8r	.	.	8c#	lu	.	.	8r	.	.
8.F#L	.	4r	.	.	8BJ	lu	.	.	2r	.	.
.	.	.	.	.	4A	lu	.	.	.	.	.
16F#Jk	.	.	.	.	.	.	.	.	.	.	.
16r	.	2r	.	.	.	.	.	.	.	.	.
16F#KL	.	.	.	.	.	.	.	.	.	.	.
8F#J	.	.	.	.	8B	lu	.	.	.	.	.
8F#L	.	.	.	.	4A	lun	.	.	16ALL	.	み
.	.	.	.	.	.	.	.	.	16B	.	え
8F#J	.	.	.	.	.	.	.	.	16c#	.	な
.	.	.	.	.	.	.	.	.	16dJJ	.	い
=19	=19	=19	=19	=19	=19	=19	=19	=19	=19	=19	=19
4D	.	1r	.	.	1r	.	4..r	.	8eL	.	み
.	.	.	.	.	.	.	.	.	16AK	.	ら
.	.	.	.	.	.	.	.	.	8A	.	い
8DL	.	.	.	.	.	.	.	.	.	.	.
.	.	.	.	.	.	.	.	.	8A	.	を
8DJ	.	.	.	.	.	.	.	.	.	.	.
.	.	.	.	.	.	.	16c#	ち	16AJk	.	ち
4E	.	.	.	.	.	.	8f#L	か	8dL	.	か
.	.	.	.	.	.	.	16eL	い	16c#L	.	い
.	.	.	.	.	.	.	[16dJJ	あ	[16BJJ	.	あ
8EL	.	.	.	.	.	.	16dLL]	.	16BLL]	.	.
.	.	.	.	.	.	.	16c#J	っ	16AJ	.	っ
8EJ	.	.	.	.	.	.	[8c#J	た	[8AJ	.	た
=20	=20	=20	=20	=20	=20	=20	=20	=20	=20	=20	=20
4AA	.	1r	.	.	1r	.	2c#]	.	2A]	.	.
8AAL	.	.	.	.	.	.	.	.	.	.	.
8AAJ	.	.	.	.	.	.	.	.	.	.	.
8E	tu	.	.	.	.	.	2r	.	2r	.	.
8r	.	.	.	.	.	.	.	.	.	.	.
4E	tu	.	.	.	.	.	.	.	.	.	.
=21	=21	=21	=21	=21	=21	=21	=21	=21	=21	=21	=21
4AA	dm	1c#	uh	.	1e	uh	1a	uh	8r	.	.
.	.	.	.	.	.	.	.	.	8e	さ	.
8.AAL	.	.	.	.	.	.	.	.	8eL	む	.
.	.	.	.	.	.	.	.	.	16eL	さ	.
16AAJk	.	.	.	.	.	.	.	.	[16eJJ	に	.
16r	.	.	.	.	.	.	.	.	8eL]	.	.
16AAKL	.	.	.	.	.	.	.	.	.	.	.
8AAJ	.	.	.	.	.	.	.	.	16dL	こ	.
.	.	.	.	.	.	.	.	.	[16c#JJ	ら	.
8AAL	.	.	.	.	.	.	.	.	8c#L]	.	.
8AAJ	.	.	.	.	.	.	.	.	16BL	え	.
.	.	.	.	.	.	.	.	.	16dJJ	た	.
=22	=22	=22	=22	=22	=22	=22	=22	=22	=22	=22	=22
4C#	.	1B	uh	.	1e	uh	1g#	uh	2c#	.	.
8.C#L	.	.	.	.	.	.	.	.	.	.	.
16C#Jk	.	.	.	.	.	.	.	.	.	.	.
16r	.	.	.	.	.	.	.	.	4r	.	.
16C#KL	.	.	.	.	.	.	.	.	.	.	.
8C#J	.	.	.	.	.	.	.	.	.	.	.
8C#L	.	.	.	.	.	.	.	.	8r	.	.
8C#J	.	.	.	.	.	.	.	.	16eLL	き	.
.	.	.	.	.	.	.	.	.	[16eJJ	ぎ	.
=23	=23	=23	=23	=23	=23	=23	=23	=23	=23	=23	=23
4D	.	2B	uh	.	2e	uh	2a	uh	8eL]	.	.
.	.	.	.	.	.	.	.	.	16f#L	と	.
.	.	.	.	.	.	.	.	.	[16dJJ	ね	.
8.DL	.	.	.	.	.	.	.	.	8dL]	.	.
.	.	.	.	.	.	.	.	.	16c#L	こ	.
8D	.	.	.	.	.	.	.	.	[16dJJ	が	.
.	.	2A	uh	.	2c#	uh	4f#	uh	4d]	.	.
16DK	.	.	.	.	.	.	.	.	.	.	.
8DJ	.	.	.	.	.	.	.	.	.	.	.
8DL	.	.	.	.	.	.	8r	.	8r	.	.
8DJ	.	.	.	.	.	.	16f#LL	ま	16dLL	ま	.
.	.	.	.	.	.	.	[16f#JJ	る	[16dJJ	る	.
=24	=24	=24	=24	=24	=24	=24	=24	=24	=24	=24	=24
4BB	.	4.A	fu-	.	4.d	fu-	8f#L]	.	8dL]	.	.
.	.	.	.	.	.	.	8eJ	で	8c#J	で	.
8BBL	.	.	.	.	.	.	8dL	ぼ	8BL	ぼ	.
8BBJ	.	4.A	.	.	4.d	.	16c#L	く	16AL	くら	.
.	.	.	.	.	.	.	[16eJJ	らの	[16c#JJ	の	.
4E	.	.	.	.	.	.	8eL]	.	8c#L]	.	.
.	.	.	.	.	.	.	8dJ	こ	8BJ	こ	.
8EL	.	4F#	-uh	.	4f#	-uh	16c#KL	と	16AKL	と	.
.	.	.	.	.	.	.	8.dJ	で	8.BJ	で	.
8EJ	.	.	.	.	.	.	.	.	.	.	.
=25	=25	=25	=25	=25	=25	=25	=25	=25	=25	=25	=25
4AA	.	4.c#	tu	.	4.e	tu	4.a	tu	8r	.	.
.	.	.	.	.	.	.	.	.	8c#	つ	.
8.AAL	.	.	.	.	.	.	.	.	8c#L	ぼ	.
.	.	16r	.	.	16r	.	16r	.	16BL	み	.
16AAJk	.	[16c#	fu	.	[16e	fu	[16a	fu	[16c#JJ	を	.
16r	.	2c#]	.	.	2e]	.	2a]	.	8c#L]	.	.
16AAKL	.	.	.	.	.	.	.	.	.	.	.
8AAJ	.	.	.	.	.	.	.	.	8B	さ	.
8AAL	.	.	.	.	.	.	.	.	8c#	か	.
8AAJ	.	.	.	.	.	.	.	.	8f#J	せ	.
=26	=26	=26	=26	=26	=26	=26	=26	=26	=26	=26	=26
4C#	.	4.c#	tu	.	4.e	tu	4.g#	tu	4.f#	よう	.
8.C#L	.	.	.	.	.	.	.	.	.	.	.
.	.	2c#	fu	.	2e	fu	2g#	fu	4.e	と	.
16C#Jk	.	.	.	.	.	.	.	.	.	.	.
16r	.	.	.	.	.	.	.	.	.	.	.
16C#KL	.	.	.	.	.	.	.	.	.	.	.
8C#J	.	.	.	.	.	.	.	.	.	.	.
8C#L	.	.	.	.	.	.	.	.	8r	.	.
8C#J	.	8r	.	.	8r	.	8r	.	16eLL	み	.
.	.	.	.	.	.	.	.	.	[16eJJ	を	.
=27	=27	=27	=27	=27	=27	=27	=27	=27	=27	=27	=27
4D	.	4.c#	tu	.	4.e	tu	4.a	tu	8eL]	.	.
.	.	.	.	.	.	.	.	.	16f#L	.	ゆ
.	.	.	.	.	.	.	.	.	16dJJ	.	ら
8.DL	.	.	.	.	.	.	.	.	8dL	.	し
.	.	16r	.	.	16r	.	16r	.	16c#L	.	て
16DJk	.	2B	fu	.	2d	fu	2f#	fu	[16dJJ	.	る
16r	.	.	.	.	.	.	.	.	4d]	.	.
16DKL	.	.	.	.	.	.	.	.	.	.	.
8DJ	.	.	.	.	.	.	.	.	.	.	.
8DL	.	.	.	.	.	.	.	.	8r	.	.
8DJ	.	.	.	.	.	.	.	.	16r	.	.
.	.	16e	す	.	16r	.	16r	.	16c#	.	す
=28	=28	=28	=28	=28	=28	=28	=28	=28	=28	=28	=28
4BB	.	8f#L	て	.	2B	uh-	2d	uh-	8dL	.	て
.	.	8e	き	.	.	.	.	.	8c#	.	き
8BBL	.	8d	に	.	.	.	.	.	8B	.	に
8BBJ	.	8c#J	わ	.	.	.	.	.	8AJ	.	わ
4E	.	8eL	らっ	.	2c#	.	2g#	.	8c#L	.	らっ
.	.	8d	て	.	.	.	.	.	8B	.	て
8EL	.	8c#	い	.	.	.	.	.	8A	.	い
8EJ	.	8dJ	る	.	.	.	.	.	8BJ	.	る
=29	=29	=29	=29	=29	=29	=29	=29	=29	=29	=29	=29
8DL	あ	8c#L	.	あ	1c#	-uh	1e	uh	8AL	.	あ
8D	せ	8B	.	せ	.	.	.	.	8G#	.	せ
8D	ら	8d	.	ら	.	.	.	.	8B	.	ら
[8EJ	ない	[8c#J	.	ない	.	.	.	.	[8AJ	.	ない
8EL]	.	8c#L]	.	.	.	.	.	.	8AL]	.	.
[8E	で	8B	.	で	.	.	.	.	8G#	.	で
8E]	い	8B	.	い	.	.	.	.	8G#	.	い
8EJ	い	[8c#J	.	い	.	.	.	.	[8AJ	.	い
=30	=30	=30	=30	=30	=30	=30	=30	=30	=30	=30	=30
4F#	dm	8c#]	.	.	8c#L	tu	8eL	-tu	8A]	.	.
.	.	8r	.	.	8A	lu	8c#	lu	8r	.	.
8.F#L	.	4r	.	.	8G#J	lu	8BJ	lu	2r	.	.
.	.	.	.	.	4F#	lun	4A	lun	.	.	.
16F#Jk	.	.	.	.	.	.	.	.	.	.	.
16r	.	2r	.	.	.	.	.	.	.	.	.
16F#KL	.	.	.	.	.	.	.	.	.	.	.
8F#J	.	.	.	.	8G#	lu	8B	lu	.	.	.
8F#L	.	.	.	.	4F#	lu	4A	lu	16ALL	.	い
.	.	.	.	.	.	.	.	.	16B	.	つ
8F#J	.	.	.	.	.	.	.	.	16c#	.	か
.	.	.	.	.	.	.	.	.	16dJJ	.	は
=31	=31	=31	=31	=31	=31	=31	=31	=31	=31	=31	=31
4D	.	2B	uh-	.	2e	uh-	2g#	uh-	8eL	.	な
.	.	.	.	.	.	.	.	.	16AL	.	た
.	.	.	.	.	.	.	.	.	[16AJJ	.	ば
8DL	.	.	.	.	.	.	.	.	16AKL]	.	.
.	.	.	.	.	.	.	.	.	8A	.	に
8DJ	.	.	.	.	.	.	.	.	.	.	.
.	.	.	.	.	.	.	.	.	[16dJk	.	な
4E	.	2A	.	.	2d	.	2f#	.	8dL]	.	っ
.	.	.	.	.	.	.	.	.	16c#L	.	て
.	.	.	.	.	.	.	.	.	16c#JJ	.	お
8EL	.	.	.	.	.	.	.	.	8BL	.	く
8EJ	.	.	.	.	.	.	.	.	16AL	.	れ
.	.	.	.	.	.	.	.	.	[16AJJ	.	よ
=32	=32	=32	=32	=32	=32	=32	=32	=32	=32	=32	=32
4AA	.	2A	-uh	.	2c#	-uh	2e	-uh	4A]	.	.
8AAL	.	.	.	.	.	.	.	.	4r	.	.
8AAJ	.	.	.	.	.	.	.	.	.	.	.
8AAL	そ	8F#L	そ	.	8c#L	そ	8AL	そ	8AL	.	そ
8BB	れ	8G#	れ	.	8d	れ	8B	れ	8B	.	れ
8C#	ま	8A	ま	.	8e	ま	8c#	ま	8c#	.	ま
8DJ	で	8BJ	で	.	8f#J	で	8dJ	で	8dJ	.	で
=33	=33	=33	=33	=33	=33	=33	=33	=33	=33	=33	=33
4D	dm	4.c#	ta	.	4.e	ta	4.a	まっ	4.e	.	まっ
8r	.	.	.	.	.	.	.	.	.	.	.
[8E	.	2c#	ta	.	2e	ta	8a	て	8e	.	て
4E]	.	.	.	.	.	.	8eL	.	8AL	.	.
.	.	.	.	.	.	.	8c#	い	8A	.	い
4F#	.	.	.	.	.	.	8B	て	8G#	.	て
.	.	8r	.	.	8r	.	[8c#J	ね	[8AJ	.	ね
=34	=34	=34	=34	=34	=34	=34	=34	=34	=34	=34	=34
4AA	.	4A	tu	.	4c#	tu	4c#]	.	4A]	.	.
8r	.	8r	.	.	8r	.	4r	.	4r	.	.
[8AA	lu	[8A	tu	.	[8c#	tu	.	.	.	.	.
8AAL]	.	8A]	.	.	8c#]	.	2r	.	8r	.	.
8AA	lu	4A	tu	.	4c#	tu	.	.	8AL	.	こ
8BB	lu	.	.	.	.	.	.	.	8A	.	れ
8C#J	lu	8A	tu	.	8c#	tu	.	.	8AJ	.	か
=35	=35	=35	=35	=35	=35	=35	=35	=35	=35	=35	=35
4D	dm	2B	uh-	.	2d	uh-	2f#	uh-	8dL	.	ら
.	.	.	.	.	.	.	.	.	8c#	.	の
8r	.	.	.	.	.	.	.	.	8d	.	て
[8E	.	.	.	.	.	.	.	.	8c#J	.	ん
4E]	.	2B	.	.	2d	.	2f#	.	8dL	.	か
.	.	.	.	.	.	.	.	.	8c#	.	い
4F#	.	.	.	.	.	.	.	.	8B	.	を
.	.	.	.	.	.	.	.	.	8AJ	.	ふ
=36	=36	=36	=36	=36	=36	=36	=36	=36	=36	=36	=36
8AAL	.	4.B	-lu	.	4.c#	-lu	4.e	-lu	8c#L	.	た
8E	.	.	.	.	.	.	.	.	8e	.	り
8B	.	.	.	.	.	.	.	.	8c#	.	.
[8AJ	.	4.B	lu	.	4.c#	lu	4.e	lu	8c#J	.	で
8AL]	.	.	.	.	.	.	.	.	8r	.	.
8E	.	.	.	.	.	.	.	.	8AL	.	あ
8BB	.	4B	lun	.	4c#	lun	4e	lun	8A	.	き
8EEJ	.	.	.	.	.	.	.	.	8AJ	.	る
=37	=37	=37	=37	=37	=37	=37	=37	=37	=37	=37	=37
8DL	.	2B	la	.	2e	la	2g#	la	8eL	ま	.
8D	.	.	.	.	.	.	.	.	8eJ	で	.
8D	.	.	.	.	.	.	.	.	8r	.	.
8DJ	.	.	.	.	.	.	.	.	8e	す	.
8EL	.	2B	la	.	2e	la	2g#	la	8eL	ご	.
8E	.	.	.	.	.	.	.	.	8d	し	.
8E	.	.	.	.	.	.	.	.	8c#	て	.
8EJ	.	.	.	.	.	.	.	.	8dJ	み	.
=38	=38	=38	=38	=38	=38	=38	=38	=38	=38	=38	=38
8C#L	tu	8c#L	tu	.	8eL	tu	8eL	tu	8eL	る	.
8C#J	lu	8dJ	lu	.	8f#J	lu	8aJ	lu	8a	か	.
8r	.	8r	.	.	8r	.	8r	.	8g#	ら	.
4.F#	fu	4.f#	fu	.	4.a	fu	4.cc#	fu	8aJ	ね	.
.	.	.	.	.	.	.	.	.	8r	.	.
.	.	.	.	.	.	.	.	.	8aL	さ	.
4E	uh	4e	uh	.	4a	uh	4a	uh	8a	い	.
.	.	.	.	.	.	.	.	.	8aJ	て	.
=39	=39	=39	=39	=39	=39	=39	=39	=39	=39	=39	=39
8DL	dm	8r	.	.	8r	.	8r	.	8cc#L	い	.
8D	.	8c#	tun	.	8f#	tun	8a	tun	8a	げ	.
8D	.	8r	.	.	8r	.	8r	.	8f#	ん	.
8DJ	.	8c#	tun	.	8f#	tun	8a	tun	8f#J	の	.
8DL	.	8r	.	.	8r	.	8r	.	8eL	あ	.
8D	.	8c#	tun	.	8e	tun	8a	tun	8a	い	.
8D	.	8r	.	.	8r	.	8r	.	8a	を	.
8DJ	つ	8c#	つ	.	8e	つ	8a	つ	8aJ	つ	.
=40	=40	=40	=40	=40	=40	=40	=40	=40	=40	=40	=40
8.EL	たえ	8.eL	たえ	.	8.c#L	たえ	8.aL	たえ	8.aL	たえ	.
[16EJk	な	[16eJk	な	.	[16c#Jk	な	[16aJk	な	[16g#Jk	な	.
8EL]	.	8eL]	.	.	8c#L]	.	8aL]	.	8g#L]	.	.
8EJ	が	8eJ	が	.	8c#J	が	8aJ	が	8aJ	が	.
4E	ら	4e	ら	.	4c#	ら	4a	ら	4b	ら	.
4r	.	4r	.	.	4r	.	4r	.	8eL	ど	.
.	.	.	.	.	.	.	.	.	16dL	ん	.
.	.	.	.	.	.	.	.	.	16dJJ	な	.
=41	=41	=41	=41	=41	=41	=41	=41	=41	=41	=41	=41
4AA	dm	1A	fu	.	1c#	fu	1e	fu	2c#	ー	.
8.AAL	.	.	.	.	.	.	.	.	.	.	.
16AAJk	.	.	.	.	.	.	.	.	.	.	.
16r	.	.	.	.	.	.	.	.	8r	.	.
16AAKL	.	.	.	.	.	.	.	.	.	.	.
8AAJ	.	.	.	.	.	.	.	.	8AL	み	.
8AAL	.	.	.	.	.	.	.	.	8A	ら	.
8AAJ	.	.	.	.	.	.	.	.	8aJ	い	.
=42	=42	=42	=42	=42	=42	=42	=42	=42	=42	=42	=42
4C#	.	1G#	uh	.	1c#	uh	1e	uh	8aL	が	.
.	.	.	.	.	.	.	.	.	[8g#J	ー	.
8.C#L	.	.	.	.	.	.	.	.	2g#]	.	.
16C#Jk	.	.	.	.	.	.	.	.	.	.	.
16r	.	.	.	.	.	.	.	.	.	.	.
16C#KL	.	.	.	.	.	.	.	.	.	.	.
8C#J	.	.	.	.	.	.	.	.	.	.	.
8C#L	.	.	.	.	.	.	.	.	8r	.	.
8C#J	.	.	.	.	.	.	.	.	8g#	こ	.
=43	=43	=43	=43	=43	=43	=43	=43	=43	=43	=43	=43
4D	.	2c#	uh-	.	2f#	uh-	2a	uh-	8aL	ち	.
.	.	.	.	.	.	.	.	.	8a	ら	.
8.DL	.	.	.	.	.	.	.	.	8a	を	.
.	.	.	.	.	.	.	.	.	8aJ	の	.
16DJk	.	.	.	.	.	.	.	.	.	.	.
8.EL	.	2B	.	.	2g#	.	2b	.	8.bL	ぞ	.
8.E	.	.	.	.	.	.	.	.	8.g#	いて	.
8EJ	.	.	.	.	.	.	.	.	8f#J	る	.
=44	=44	=44	=44	=44	=44	=44	=44	=44	=44	=44	=44
4AA	.	1A	-uh	.	1c#	-uh	1f#	-uh	8.f#L	か	.
.	.	.	.	.	.	.	.	.	16f#Jk	な	.
8.AAL	.	.	.	.	.	.	.	.	4e	.	.
16AAJk	.	.	.	.	.	.	.	.	.	.	.
16r	.	.	.	.	.	.	.	.	8r	.	.
16AAKL	.	.	.	.	.	.	.	.	.	.	.
8AAJ	.	.	.	.	.	.	.	.	8eL	き	.
8AAL	.	.	.	.	.	.	.	.	8e	み	.
8AAJ	.	.	.	.	.	.	.	.	8eJ	の	.
=45	=45	=45	=45	=45	=45	=45	=45	=45	=45	=45	=45
4.D	tu	4.A	tu	.	4.c#	tu	4.e	tu	8eL	つ	.
.	.	.	.	.	.	.	.	.	8d	よ	.
.	.	.	.	.	.	.	.	.	8c#	さ	.
8D	tu	8A	tu	.	8c#	tu	8e	tu	8aJ	と	.
4r	.	4r	.	.	4r	.	4r	.	8r	.	.
.	.	.	.	.	.	.	.	.	8eL	ぼ	.
4D	tu	4A	tu	.	4c#	tu	4e	tu	8e	く	.
.	.	.	.	.	.	.	.	.	8eJ	の	.
=46	=46	=46	=46	=46	=46	=46	=46	=46	=46	=46	=46
4.C#	tu	4.A	tu	.	4.c#	tu	4.e	tu	8eL	よ	.
.	.	.	.	.	.	.	.	.	8d	わ	.
.	.	.	.	.	.	.	.	.	8c#	さ	.
8C#	tu	8A	tu	.	8c#	tu	8e	tu	8aJ	を	.
4r	.	4r	.	.	4r	.	4r	.	8r	.	.
.	.	.	.	.	.	.	.	.	8aL	わ	.
4C#	tu	4A	tu	.	4c#	tu	4e	tu	8a	け	.
.	.	.	.	.	.	.	.	.	8aJ	あ	.
=47	=47	=47	=47	=47	=47	=47	=47	=47	=47	=47	=47
8DL	dm	2A	uh-	.	2c#	uh-	2f#	uh	8aL	え	.
8D	.	.	.	.	.	.	.	.	8f#	ば	.
8D	.	.	.	.	.	.	.	.	8a	ど	.
8DJ	.	.	.	.	.	.	.	.	8f#J	ん	.
8EL	.	2c#	.	.	2e	.	2a	.	8aL	な	.
8E	.	.	.	.	.	.	.	.	8a	す	.
8E	.	.	.	.	.	.	.	.	8a	ご	.
8EJ	.	.	.	.	.	.	.	.	8aJ	い	.
=48	=48	=48	=48	=48	=48	=48	=48	=48	=48	=48	=48
4E	.	2.e	-uh	.	2.g#	-uh	2.b	uh	8bL	こ	.
.	.	.	.	.	.	.	.	.	8g#	と	.
8.EL	.	.	.	.	.	.	.	.	8g#	が	.
.	.	.	.	.	.	.	.	.	8f#J	お	.
16EJk	.	.	.	.	.	.	.	.	.	.	.
4E	.	.	.	.	.	.	.	.	8f#L	き	.
.	.	.	.	.	.	.	.	.	8eJ	る	.
8.EL	.	4c#	uh	.	4e	uh	4a	uh	8eL	か	.
.	.	.	.	.	.	.	.	.	16dL	ー	.
16EJk	.	.	.	.	.	.	.	.	16dJJ	な	.
=49	=49	=49	=49	=49	=49	=49	=49	=49	=49	=49	=49
4AA	.	2.A	fu	.	2.c#	fu	2.e	fu	2.c#	ー	.
8.AAL	.	.	.	.	.	.	.	.	.	.	.
16AAJk	.	.	.	.	.	.	.	.	.	.	.
16r	.	.	.	.	.	.	.	.	.	.	.
16AAKL	.	.	.	.	.	.	.	.	.	.	.
8AAJ	.	.	.	.	.	.	.	.	.	.	.
8AAL	.	4r	.	.	4r	.	4r	.	8aL	ほ	.
8AAJ	.	.	.	.	.	.	.	.	8aJ	ら	.
=50	=50	=50	=50	=50	=50	=50	=50	=50	=50	=50	=50
4C#	.	1B	uh	.	2e	uh	1g#	uh	2g#	.	.
8.C#L	.	.	.	.	.	.	.	.	.	.	.
16C#Jk	.	.	.	.	.	.	.	.	.	.	.
16r	.	.	.	.	8r	.	.	.	8r	.	.
16C#KL	.	.	.	.	.	.	.	.	.	.	.
8C#J	.	.	.	.	8dL	も	.	.	8f#L	も	.
8C#L	.	.	.	.	8d	う	.	.	8f#	う	.
8C#J	.	.	.	.	8eJ	こ	.	.	8g#J	こ	.
=51	=51	=51	=51	=51	=51	=51	=51	=51	=51	=51	=51
8DL	.	2f#	oh-	.	8f#L	ん	2a	oh-	8aL	ん	.
8D	.	.	.	.	8g#	な	.	.	8b	な	.
8D	.	.	.	.	8e	に	.	.	8g#	に	.
8DJ	.	.	.	.	8f#J	も	.	.	8aJ	も	.
8EL	.	2g#	.	.	8eL	し	2b	.	8g#L	し	.
8E	.	.	.	.	8f#	あ	.	.	8a	あ	.
8E	.	.	.	.	8g#	わ	.	.	8b	わ	.
8EJ	.	.	.	.	[8aJ	せ	.	.	[8cc#J	せ	.
=52	=52	=52	=52	=52	=52	=52	=52	=52	=52	=52	=52
4AA	.	2a	-ah	.	2a]	.	2cc#	-ah	2cc#]	.	.
8.AAL	.	.	.	.	.	.	.	.	.	.	.
16AAJk	.	.	.	.	.	.	.	.	.	.	.
16r	.	2r	.	.	2r	.	2r	.	8r	.	.
16AAKL	.	.	.	.	.	.	.	.	.	.	.
8AAJ	.	.	.	.	.	.	.	.	8eL	い	.
8AAL	.	.	.	.	.	.	.	.	8e	つ	.
8AAJ	.	.	.	.	.	.	.	.	8eJ	か	.
=53	=53	=53	=53	=53	=53	=53	=53	=53	=53	=53	=53
4.D	tu	4.A	tu	.	4.c#	tu	4.e	tu	8eL	は	.
.	.	.	.	.	.	.	.	.	8d	ひ	.
.	.	.	.	.	.	.	.	.	8c#	と	.
8D	tu	8A	tu	.	8c#	tu	8e	tu	8aJ	り	.
4r	.	4r	.	.	4r	.	4r	.	8r	.	.
.	.	.	.	.	.	.	.	.	8eL	い	.
4D	tu	4A	tu	.	4c#	tu	4e	tu	8e	つ	.
.	.	.	.	.	.	.	.	.	8eJ	か	.
=54	=54	=54	=54	=54	=54	=54	=54	=54	=54	=54	=54
4.C#	tu	4.A	tu	.	4.c#	tu	4.e	tu	8eL	は	.
.	.	.	.	.	.	.	.	.	8d	ふ	.
.	.	.	.	.	.	.	.	.	8c#	た	.
8C#	tu	8A	tu	.	8c#	tu	8e	tu	8aJ	り	.
4r	.	4r	.	.	4r	.	4r	.	8r	.	.
.	.	.	.	.	.	.	.	.	8aL	た	.
4C#	tu	4A	tu	.	4c#	tu	4e	tu	8a	い	.
.	.	.	.	.	.	.	.	.	8aJ	せ	.
=55	=55	=55	=55	=55	=55	=55	=55	=55	=55	=55	=55
4D	dm	2c#	la	.	2f#	la	2a	la	8aL	つ	.
.	.	.	.	.	.	.	.	.	8f#	を	.
8DL	.	.	.	.	.	.	.	.	8a	ふ	.
8DJ	.	.	.	.	.	.	.	.	8aJ	や	.
4E	.	2e	la	.	2e	la	2g#	la	8cc#L	し	.
.	.	.	.	.	.	.	.	.	8b	て	.
8EL	.	.	.	.	.	.	.	.	8a	ゆ	.
8EJ	.	.	.	.	.	.	.	.	[8aJ	こう	.
=56	=56	=56	=56	=56	=56	=56	=56	=56	=56	=56	=56
4AA	.	8r	.	.	8r	.	8r	.	2a]	.	.
.	.	8AL	tu	.	8c#L	tu	8eL	tu	.	.	.
8AAL	.	8B	lu	.	8d	lu	8f#	lu	.	.	.
8AAJ	.	8dJ	lu	.	8f#J	lu	8aJ	lu	.	.	.
8F#	tu	8d	lu	.	8f#	lu	8a	tu	2r	.	.
8r	.	8r	.	.	8r	.	8r	.	.	.	.
4F#	tun	4d	tun	.	4f#	tun	4a	tun	.	.	.
=57	=57	=57	=57	=57	=57	=57	=57	=57	=57	=57	=57
4AA	dm	8r	.	.	4r	.	4.r	.	8r	.	.
.	.	2..A	tun	.	.	.	.	.	8eL	き	.
8.AAL	.	.	.	.	2.c#	tun	.	.	8e	た	.
.	.	.	.	.	.	.	[2e	tun	8eJ	せ	.
16AAJk	.	.	.	.	.	.	.	.	.	.	.
16r	.	.	.	.	.	.	.	.	8eL	ん	.
16AAKL	.	.	.	.	.	.	.	.	.	.	.
8AAJ	.	.	.	.	.	.	.	.	16dL	じゅ	.
.	.	.	.	.	.	.	.	.	[16c#JJ	え	.
8AAL	.	.	.	.	.	.	.	.	8c#L]	.	.
8AAJ	.	.	.	.	.	.	8e]	.	16BL	き	.
.	.	.	.	.	.	.	.	.	16dJJ	を	.
=58	=58	=58	=58	=58	=58	=58	=58	=58	=58	=58	=58
4C#	.	8r	.	.	4r	.	4.r	.	[8c#	.	.
.	.	2..B	tun	.	.	.	.	.	2c#]	.	.
8.C#L	.	.	.	.	2.e	tun	.	.	.	.	.
.	.	.	.	.	.	.	[2g#	tun	.	.	.
16C#Jk	.	.	.	.	.	.	.	.	.	.	.
16r	.	.	.	.	.	.	.	.	.	.	.
16C#KL	.	.	.	.	.	.	.	.	.	.	.
8C#J	.	.	.	.	.	.	.	.	4r	.	.
8C#L	.	.	.	.	.	.	.	.	.	.	.
8C#J	.	.	.	.	.	.	8g#]	.	16eLL	フ	.
.	.	.	.	.	.	.	.	.	[16eJJ	ワ	.
=59	=59	=59	=59	=59	=59	=59	=59	=59	=59	=59	=59
4D	.	8r	.	.	4r	.	4.r	.	8eL]	っ	.
.	.	2..B	tun	.	.	.	.	.	16f#L	と	.
.	.	.	.	.	.	.	.	.	[16dJJ	あ	.
8.DL	.	.	.	.	2.e	tun	.	.	8dL]	.	.
.	.	.	.	.	.	.	2a	tun	16c#L	る	.
16DJk	.	.	.	.	.	.	.	.	[16dJJ	く	.
16r	.	.	.	.	.	.	.	.	4d]	.	.
16DKL	.	.	.	.	.	.	.	.	.	.	.
8DJ	.	.	.	.	.	.	.	.	.	.	.
8DL	.	.	.	.	.	.	.	.	8.r	.	.
8DJ	.	.	.	.	.	.	16r	.	.	.	.
.	.	.	.	.	.	.	16e	あ	16c#	あ	.
=60	=60	=60	=60	=60	=60	=60	=60	=60	=60	=60	=60
4BB	.	4.A	tu	.	4.d	tu	8f#L	い	8dL	い	.
.	.	.	.	.	.	.	8e	い	8c#	い	.
8BBL	.	.	.	.	.	.	8d	ろ	8B	ろ	.
8BBJ	.	4.A	tu	.	4.d	tu	8c#J	の	8AJ	の	.
4E	.	.	.	.	.	.	8eL	ス	8c#L	ス	.
.	.	.	.	.	.	.	8d	カ	8B	カ	.
8EL	.	4F#	uh	.	4f#	uh	8c#	ー	8A	ー	.
8EJ	.	.	.	.	.	.	8dJ	ト	8BJ	ト	.
=61	=61	=61	=61	=61	=61	=61	=61	=61	=61	=61	=61
4AA	.	8r	.	.	4r	.	4.r	.	8r	.	.
.	.	2..c#	tun	.	.	.	.	.	8c#	い	.
8.AAL	.	.	.	.	2.e	tun	.	.	8c#L	つ	.
.	.	.	.	.	.	.	[2a	tun	16BL	に	.
16AAJk	.	.	.	.	.	.	.	.	[16c#JJ	な	.
16r	.	.	.	.	.	.	.	.	8c#L]	.	.
16AAKL	.	.	.	.	.	.	.	.	.	.	.
8AAJ	.	.	.	.	.	.	.	.	8B	く	.
8AAL	.	.	.	.	.	.	.	.	8c#	と	.
8AAJ	.	.	.	.	.	.	8a]	.	8f#J	お	.
=62	=62	=62	=62	=62	=62	=62	=62	=62	=62	=62	=62
4C#	.	8r	.	.	4r	.	4.r	.	4.f#	く	.
.	.	2..c#	tun	.	.	.	.	.	.	.	.
8.C#L	.	.	.	.	2.e	tun	.	.	.	.	.
.	.	.	.	.	.	.	[2g#	tun	2e	.	.
16C#Jk	.	.	.	.	.	.	.	.	.	.	.
16r	.	.	.	.	.	.	.	.	.	.	.
16C#KL	.	.	.	.	.	.	.	.	.	.	.
8C#J	.	.	.	.	.	.	.	.	.	.	.
8C#L	.	.	.	.	.	.	.	.	.	.	.
8C#J	.	.	.	.	.	.	8g#]	.	16eLL	と	.
.	.	.	.	.	.	.	.	.	[16eJJ	お	.
=63	=63	=63	=63	=63	=63	=63	=63	=63	=63	=63	=63
4D	.	8r	.	.	4r	.	4.r	.	8eL]	.	.
.	.	2.d	tun	.	.	.	.	.	16f#L	く	.
.	.	.	.	.	.	.	.	.	[16dJJ	に	.
8.DL	.	.	.	.	2.f#	tun	.	.	8dL]	.	.
.	.	.	.	.	.	.	[2a	tun	16c#L	み	.
16DJk	.	.	.	.	.	.	.	.	[16dJJ	える	.
16r	.	.	.	.	.	.	.	.	4d]	.	.
16DKL	.	.	.	.	.	.	.	.	.	.	.
8DJ	.	.	.	.	.	.	.	.	.	.	.
8DL	.	.	.	.	.	.	.	.	8r	.	.
8DJ	.	16r	.	.	.	.	8a]	.	16r	.	.
.	.	16e	か	.	.	.	.	.	16c#	か	.
=64	=64	=64	=64	=64	=64	=64	=64	=64	=64	=64	=64
4BB	.	8f#L	そ	.	2B	uh-	2d	uh	8dL	そ	.
.	.	8e	く	.	.	.	.	.	8c#	く	.
8BBL	.	8d	す	.	.	.	.	.	8B	す	.
8BBJ	.	8c#J	る	.	.	.	.	.	8AJ	る	.
4E	.	8eL	あ	.	2c#	.	2g#	.	8c#L	あ	.
.	.	8d	し	.	.	.	.	.	8B	し	.
8EL	.	8c#	お	.	.	.	.	.	8A	お	.
8EJ	.	8dJ	と	.	.	.	.	.	8BJ	と	.
=65	=65	=65	=65	=65	=65	=65	=65	=65	=65	=65	=65
8DL	す	8c#L	す	.	1c#	-uh	1e	uh	8AL	す	.
8D	な	8B	な	.	.	.	.	.	8G#	な	.
8D	お	8d	お	.	.	.	.	.	8B	お	.
[8EJ	じゃ	[8c#J	じゃ	.	.	.	.	.	[8AJ	じゃ	.
8EL]	.	8c#L]	.	.	.	.	.	.	8AL]	.	.
8E	な	8B	な	.	.	.	.	.	8G#	な	.
8E	い	8B	い	.	.	.	.	.	8G#	い	.
8EJ	と	8c#J	と	.	.	.	.	.	8AJ	と	.
=66	=66	=66	=66	=66	=66	=66	=66	=66	=66	=66	=66
4F#	dm	1r	.	.	8c#L	tu	8eL	tu	2.r	.	.
.	.	.	.	.	8A	lu	8c#	lu	.	.	.
8.F#L	.	.	.	.	8G#J	lu	8BJ	lu	.	.	.
.	.	.	.	.	4F#	lun	4A	lun	.	.	.
16F#Jk	.	.	.	.	.	.	.	.	.	.	.
16r	.	.	.	.	.	.	.	.	.	.	.
16F#KL	.	.	.	.	.	.	.	.	.	.	.
8F#J	.	.	.	.	8G#	lu	8B	lu	.	.	.
8F#L	.	.	.	.	4F#	lu	4A	lu	16ALL	い	.
.	.	.	.	.	.	.	.	.	16B	け	.
8F#J	.	.	.	.	.	.	.	.	16c#	な	.
.	.	.	.	.	.	.	.	.	16dJJ	い	.
=67	=67	=67	=67	=67	=67	=67	=67	=67	=67	=67	=67
4D	.	2B	uh-	.	2e	uh-	2g#	uh-	8eL	よ	.
.	.	.	.	.	.	.	.	.	16AL	う	.
.	.	.	.	.	.	.	.	.	16AJJ	な	.
8DL	.	.	.	.	.	.	.	.	4r	.	.
8DJ	.	.	.	.	.	.	.	.	.	.	.
4E	.	2A	.	.	2d	.	2f#	.	8dL	き	.
.	.	.	.	.	.	.	.	.	8eJ	が	.
8EL	.	.	.	.	.	.	.	.	8BL	し	.
8EJ	.	.	.	.	.	.	.	.	16AL	た	.
.	.	.	.	.	.	.	.	.	[16AJJ	よ	.
=68	=68	=68	=68	=68	=68	=68	=68	=68	=68	=68	=68
4AA	.	4.A	-uh	.	4.c#	-uh	4.e	-uh	4A]	.	.
8AAL	.	.	.	.	.	.	.	.	8r	.	.
8AAJ	や	8F#	や	.	8c#	や	8A	や	8A	や	.
8AAL	さ	8G#L	さ	.	8c#L	さ	8AL	さ	8AL	さ	.
8BB	し	8A	し	.	8d	し	8B	し	8B	し	.
8C#	さ	8A	さ	.	8e	さ	8c#	さ	8c#	さ	.
8DJ	に	8BJ	に	.	8f#J	に	8dJ	に	8dJ	に	.
=69	=69	=69	=69	=69	=69	=69	=69	=69	=69	=69	=69
4D	dm	4.c#	ta	.	4.e	ta	4a	あ	4e	あ	.
8r	.	.	.	.	.	.	8aL	ま	8eL	ま	.
[8E	.	2c#	ta	.	2e	ta	8aJ	え	8eJ	え	.
4E]	.	.	.	.	.	.	8eL	.	8AL	.	.
.	.	.	.	.	.	.	8c#	す	8A	す	.
4F#	.	.	.	.	.	.	8B	ぎ	8G#	ぎ	.
.	.	8r	.	.	8r	.	8c#J	て	8AJ	て	.
=70	=70	=70	=70	=70	=70	=70	=70	=70	=70	=70	=70
4AA	.	4A	tu	.	4c#	tu	1r	.	2r	.	.
8r	.	8r	.	.	8r	.	.	.	.	.	.
[8AA	lu	4A	tu	.	4c#	tu	.	.	.	.	.
8AAL]	.	.	.	.	.	.	.	.	8r	.	.
8AA	lu	4A	tu	.	4c#	tu	.	.	8AL	お	.
8BB	lu	.	.	.	.	.	.	.	8A	び	.
8C#J	lu	8A	tu	.	8c#	tu	.	.	8AJ	え	.
=71	=71	=71	=71	=71	=71	=71	=71	=71	=71	=71	=71
4D	dm	2B	uh-	.	2d	uh-	2f#	uh-	8dL	す	.
.	.	.	.	.	.	.	.	.	8c#	ぎ	.
8r	.	.	.	.	.	.	.	.	8d	た	.
[8E	.	.	.	.	.	.	.	.	8c#J	お	.
4E]	.	2B	.	.	2d	.	2f#	.	8dL	と	.
.	.	.	.	.	.	.	.	.	8c#	こ	.
4F#	.	.	.	.	.	.	.	.	8B	の	.
.	.	.	.	.	.	.	.	.	8AJ	せ	.
=72	=72	=72	=72	=72	=72	=72	=72	=72	=72	=72	=72
8AAL	.	4.B	-lu	.	4.c#	-lu	4.e	-lu	8c#L	な	.
8E	.	.	.	.	.	.	.	.	8e	か	.
8B	.	.	.	.	.	.	.	.	8c#	.	.
[8AJ	.	4.B	lu	.	4.c#	lu	4.e	lu	8c#J	に	.
8AL]	.	.	.	.	.	.	.	.	8r	.	.
8E	.	.	.	.	.	.	.	.	8AL	て	.
8BB	.	4B	lun	.	4c#	lun	4e	lun	8A	の	.
8EEJ	.	.	.	.	.	.	.	.	8AJ	ひ	.
=73	=73	=73	=73	=73	=73	=73	=73	=73	=73	=73	=73
8DL	.	2B	la	.	2e	la	2g#	la	8eL	ら	.
8D	.	.	.	.	.	.	.	.	8e	を	.
8D	.	.	.	.	.	.	.	.	8e	そ	.
8DJ	.	.	.	.	.	.	.	.	8eJ	え	.
8EL	.	2B	la	.	2e	la	2g#	la	8eL	て	.
8E	.	.	.	.	.	.	.	.	8d	く	.
8E	.	.	.	.	.	.	.	.	8c#	れ	.
8EJ	.	.	.	.	.	.	.	.	8dJ	る	.
=74	=74	=74	=74	=74	=74	=74	=74	=74	=74	=74	=74
8C#	tu	8c#	の	.	8e	の	8e	の	8e	の	.
4C#	lu	4d	は	.	4g#	は	4b	は	4g#	は	.
4.F#	oh	4.f#	もう	.	4.a	もう	4.cc#	もう	4a	もう	.
.	.	.	.	.	.	.	.	.	8aL	ま	.
4E	oh	4e	oh	.	4a	oh	4a	oh	8a	え	.
.	.	.	.	.	.	.	.	.	8aJ	を	.
=75	=75	=75	=75	=75	=75	=75	=75	=75	=75	=75	=75
8DL	dm	8r	.	.	8r	.	8r	.	8cc#L	あ	.
8D	.	8c#	tan	.	8f#	tan	8a	tan	8a	る	.
8D	.	8r	.	.	8r	.	8r	.	8f#	く	.
8DJ	.	8c#	tan	.	8f#	tan	8a	tan	8f#J	き	.
8DL	.	8r	.	.	8r	.	8r	.	8eL	み	.
8D	.	8c#	tan	.	8e	tan	8a	tan	16aL	じゃ	.
.	.	.	.	.	.	.	.	.	[16aJJ	.	.
8D	.	8r	.	.	8r	.	8r	.	8aL]	な	.
8DJ	.	8c#	tan	.	8e	ta	8a	ta	8aJ	きゃ	.
=76	=76	=76	=76	=76	=76	=76	=76	=76	=76	=76	=76
8.EL	dm	8eL	だ	.	8c#L	だ	8aL	だ	8aL	だ	.
.	.	16eK	め	.	16c#K	め	16aK	め	16aK	め	.
[16EJk	.	8.e	だ	.	8.c#	だ	8.a	だ	8.g#	だ	.
8EL]	.	.	.	.	.	.	.	.	.	.	.
8EJ	.	8eJ	か	.	8c#J	か	8aJ	か	8aJ	か	.
4E	.	4e	ら	.	4c#	ら	4a	ら	4b	ら	.
4E	.	4r	.	.	4r	.	4r	.	8eL	ど	.
.	.	.	.	.	.	.	.	.	16dL	う	.
.	.	.	.	.	.	.	.	.	16dJJ	か	.
=77	=77	=77	=77	=77	=77	=77	=77	=77	=77	=77	=77
4AA	dm	1A	fu	.	1c#	fu	1e	fu	2c#	ー	.
8.AAL	.	.	.	.	.	.	.	.	.	.	.
16AAJk	.	.	.	.	.	.	.	.	.	.	.
16r	.	.	.	.	.	.	.	.	8r	.	.
16AAKL	.	.	.	.	.	.	.	.	.	.	.
8AAJ	.	.	.	.	.	.	.	.	8AL	み	.
8AAL	.	.	.	.	.	.	.	.	8A	ら	.
8AAJ	.	.	.	.	.	.	.	.	8aJ	い	.
=78	=78	=78	=78	=78	=78	=78	=78	=78	=78	=78	=78
4C#	.	1G#	uh	.	1c#	uh	1e	uh	8aL	が	.
.	.	.	.	.	.	.	.	.	[8g#J	ー	.
8.C#L	.	.	.	.	.	.	.	.	2g#]	.	.
16C#Jk	.	.	.	.	.	.	.	.	.	.	.
16r	.	.	.	.	.	.	.	.	.	.	.
16C#KL	.	.	.	.	.	.	.	.	.	.	.
8C#J	.	.	.	.	.	.	.	.	.	.	.
8C#L	.	.	.	.	.	.	.	.	8r	.	.
8C#J	.	.	.	.	.	.	.	.	8g#	こ	.
=79	=79	=79	=79	=79	=79	=79	=79	=79	=79	=79	=79
4D	.	2c#	uh-	.	2f#	uh-	2a	uh-	8aL	ち	.
.	.	.	.	.	.	.	.	.	8a	ら	.
8.DL	.	.	.	.	.	.	.	.	8a	に	.
.	.	.	.	.	.	.	.	.	8aJ	て	.
16DJk	.	.	.	.	.	.	.	.	.	.	.
8.EL	.	2B	.	.	2g#	.	2b	.	8.bL	を	.
8.E	.	.	.	.	.	.	.	.	8.g#	ふっ	.
8EJ	.	.	.	.	.	.	.	.	8f#J	て	.
=80	=80	=80	=80	=80	=80	=80	=80	=80	=80	=80	=80
4AA	.	1A	-uh	.	1c#	-uh	1f#	-uh	8.f#L	ほ	.
.	.	.	.	.	.	.	.	.	16f#Jk	し	.
8.AAL	.	.	.	.	.	.	.	.	4e	い	.
16AAJk	.	.	.	.	.	.	.	.	.	.	.
16r	.	.	.	.	.	.	.	.	8r	.	.
16AAKL	.	.	.	.	.	.	.	.	.	.	.
8AAJ	.	.	.	.	.	.	.	.	8eL	ひ	.
8AAL	.	.	.	.	.	.	.	.	8e	び	.
8AAJ	.	.	.	.	.	.	.	.	8eJ	の	.
=81	=81	=81	=81	=81	=81	=81	=81	=81	=81	=81	=81
4.D	tu	4.A	-tu	.	4.c#	-tu	4.e	-tu	8eL	つ	.
.	.	.	.	.	.	.	.	.	8d	ら	.
.	.	.	.	.	.	.	.	.	8c#	さ	.
8D	tu	8A	tu	.	8c#	tu	8e	tu	8aJ	と	.
4r	.	4r	.	.	4r	.	4r	.	8r	.	.
.	.	.	.	.	.	.	.	.	8eL	ぼ	.
4D	tu	4A	tu	.	4c#	tu	4e	tu	8e	く	.
.	.	.	.	.	.	.	.	.	8eJ	の	.
=82	=82	=82	=82	=82	=82	=82	=82	=82	=82	=82	=82
4.C#	tu	4.A	-tu	.	4.c#	-tu	4.e	-tu	8eL	か	.
.	.	.	.	.	.	.	.	.	8d	ら	.
.	.	.	.	.	.	.	.	.	8c#	だ	.
8C#	tu	8A	tu	.	8c#	tu	8e	tu	8aJ	が	.
4r	.	4r	.	.	4r	.	4r	.	8r	.	.
.	.	.	.	.	.	.	.	.	8aL	だ	.
4C#	tu	4A	tu	.	4c#	tu	4e	tu	8a	ら	.
.	.	.	.	.	.	.	.	.	8aJ	し	.
=83	=83	=83	=83	=83	=83	=83	=83	=83	=83	=83	=83
8DL	dm	2A	uh-	.	2c#	uh-	2f#	uh-	8aL	な	.
8D	.	.	.	.	.	.	.	.	8f#	く	.
8D	.	.	.	.	.	.	.	.	8a	か	.
8DJ	.	.	.	.	.	.	.	.	8f#J	え	.
8EL	.	2c#	.	.	2e	.	2a	.	8aL	る	.
8E	.	.	.	.	.	.	.	.	8a	ば	.
8E	.	.	.	.	.	.	.	.	8a	しょ	.
8EJ	.	.	.	.	.	.	.	.	8aJ	を	.
=84	=84	=84	=84	=84	=84	=84	=84	=84	=84	=84	=84
4E	.	2.e	-uh	.	2.g#	-uh	2.b	-uh	8bL	さ	.
.	.	.	.	.	.	.	.	.	8g#	が	.
8.EL	.	.	.	.	.	.	.	.	8g#	し	.
.	.	.	.	.	.	.	.	.	8f#J	つ	.
16EJk	.	.	.	.	.	.	.	.	.	.	.
4E	.	.	.	.	.	.	.	.	8f#L	づ	.
.	.	.	.	.	.	.	.	.	8eJ	け	.
8.EL	.	4c#	uh	.	4e	uh	4a	uh	8eL	て	.
.	.	.	.	.	.	.	.	.	16dL	い	.
16EJk	.	.	.	.	.	.	.	.	16dJJ	る	.
=85	=85	=85	=85	=85	=85	=85	=85	=85	=85	=85	=85
4AA	.	2.A	uh	.	2.c#	uh	2.e	uh	2.c#	ー	.
8.AAL	.	.	.	.	.	.	.	.	.	.	.
16AAJk	.	.	.	.	.	.	.	.	.	.	.
16r	.	.	.	.	.	.	.	.	.	.	.
16AAKL	.	.	.	.	.	.	.	.	.	.	.
8AAJ	.	.	.	.	.	.	.	.	.	.	.
8AAL	.	4r	.	.	4r	.	4r	.	8aL	ほ	.
8AAJ	.	.	.	.	.	.	.	.	8aJ	ら	.
=86	=86	=86	=86	=86	=86	=86	=86	=86	=86	=86	=86
4C#	.	1B	uh	.	2e	uh	1b	uh	2g#	.	.
8.C#L	.	.	.	.	.	.	.	.	.	.	.
16C#Jk	.	.	.	.	.	.	.	.	.	.	.
16r	.	.	.	.	8r	.	.	.	8r	.	.
16C#KL	.	.	.	.	.	.	.	.	.	.	.
8C#J	.	.	.	.	8dL	も	.	.	8f#L	も	.
8C#L	.	.	.	.	8d	う	.	.	8f#	う	.
8C#J	.	.	.	.	8eJ	こ	.	.	8g#J	こ	.
=87	=87	=87	=87	=87	=87	=87	=87	=87	=87	=87	=87
8DL	.	2f#	oh-	.	8f#L	ん	2a	oh-	8aL	ん	.
8D	.	.	.	.	8g#	な	.	.	8b	な	.
8D	.	.	.	.	8e	に	.	.	8g#	に	.
8DJ	.	.	.	.	8f#J	も	.	.	8aJ	も	.
8EL	.	2g#	.	.	8eL	ゆ	2b	.	8g#L	ゆ	.
8E	.	.	.	.	8f#	う	.	.	8a	う	.
8E	.	.	.	.	8g#	や	.	.	8b	や	.
8EJ	.	.	.	.	[8aJ	け	.	.	[8cc#J	け	.
=88	=88	=88	=88	=88	=88	=88	=88	=88	=88	=88	=88
4AA	.	2a	ah	.	2a]	.	2cc#	ah	2cc#]	.	.
8.AAL	.	.	.	.	.	.	.	.	.	.	.
16AAJk	.	.	.	.	.	.	.	.	.	.	.
16r	.	2r	.	.	2r	.	2r	.	8r	.	.
16AAKL	.	.	.	.	.	.	.	.	.	.	.
8AAJ	.	.	.	.	.	.	.	.	8eL	い	.
8AAL	.	.	.	.	.	.	.	.	8e	つ	.
8AAJ	.	.	.	.	.	.	.	.	8eJ	か	.
=89	=89	=89	=89	=89	=89	=89	=89	=89	=89	=89	=89
4.D	tu	4.A	-tu	.	4.c#	-tu	4.e	-tu	8eL	の	.
.	.	.	.	.	.	.	.	.	8d	あ	.
.	.	.	.	.	.	.	.	.	8c#	か	.
8D	tu	8e	tu	.	8c#	tu	8e	tu	8aJ	り	.
4r	.	4r	.	.	4r	.	4r	.	8r	.	.
.	.	.	.	.	.	.	.	.	8eL	お	.
4D	tu	4e	tu	.	4c#	tu	4e	tu	8e	も	.
.	.	.	.	.	.	.	.	.	8eJ	い	.
=90	=90	=90	=90	=90	=90	=90	=90	=90	=90	=90	=90
4.C#	tu	4.e	-tu	.	4.c#	-tu	4.e	-tu	8eL	だ	.
.	.	.	.	.	.	.	.	.	8d	す	.
.	.	.	.	.	.	.	.	.	8c#	と	.
8C#	tu	8e	tu	.	8c#	tu	8e	tu	8aJ	き	.
4r	.	4r	.	.	4r	.	4r	.	8r	.	.
.	.	.	.	.	.	.	.	.	8aL	た	.
4C#	tu	4e	tu	.	4c#	tu	4e	tu	8a	い	.
.	.	.	.	.	.	.	.	.	8aJ	せ	.
=91	=91	=91	=91	=91	=91	=91	=91	=91	=91	=91	=91
8DL	dm	2A	la	.	2f#	la	2a	la	8aL	つ	.
8D	.	.	.	.	.	.	.	.	8f#	に	.
8D	.	.	.	.	.	.	.	.	8a	き	.
8DJ	.	.	.	.	.	.	.	.	8aJ	づ	.
8EL	.	2c#	la	.	2f#	la	2cc#	la	8cc#L	く	.
8E	.	.	.	.	.	.	.	.	8b	の	.
8E	.	.	.	.	.	.	.	.	8a	で	.
8EJ	.	.	.	.	.	.	.	.	[8aJ	しょう	.
=92	=92	=92	=92	=92	=92	=92	=92	=92	=92	=92	=92
4D	.	8r	.	.	8r	.	8r	.	1a]	.	.
.	.	4d	ta	.	4f#	ta	4a	ta	.	.	.
8.DL	.	.	.	.	.	.	.	.	.	.	.
.	.	[2d	ta	.	[2f#	ta	[2a	ta	.	.	.
16DJk	.	.	.	.	.	.	.	.	.	.	.
16r	.	.	.	.	.	.	.	.	.	.	.
16DKL	.	.	.	.	.	.	.	.	.	.	.
8DJ	.	.	.	.	.	.	.	.	.	.	.
8DL	.	.	.	.	.	.	.	.	.	.	.
8DJ	.	8d]	n	.	8f#]	n	8a]	n	.	.	.
=93	=93	=93	=93	=93	=93	=93	=93	=93	=93	=93	=93
4C#	.	8r	.	.	8r	.	8r	.	1r	.	.
.	.	4c#	ta	.	4e	ta	4g#	ta	.	.	.
8.C#L	.	.	.	.	.	.	.	.	.	.	.
.	.	[2c#	ta	.	[2e	ta	[2g#	ta	.	.	.
16C#Jk	.	.	.	.	.	.	.	.	.	.	.
16r	.	.	.	.	.	.	.	.	.	.	.
16C#KL	.	.	.	.	.	.	.	.	.	.	.
8C#J	.	.	.	.	.	.	.	.	.	.	.
8C#L	.	.	.	.	.	.	.	.	.	.	.
8C#J	.	8c#]	n	.	8e]	n	8g#]	n	.	.	.
=94	=94	=94	=94	=94	=94	=94	=94	=94	=94	=94	=94
4D	.	8r	.	.	8r	.	8r	.	1r	.	.
.	.	4d	ta	.	4f#	ta	4a	ta	.	.	.
8.DL	.	.	.	.	.	.	.	.	.	.	.
.	.	[2d	ta	.	[2f#	ta	[2a	ta	.	.	.
16DJk	.	.	.	.	.	.	.	.	.	.	.
16r	.	.	.	.	.	.	.	.	.	.	.
16DKL	.	.	.	.	.	.	.	.	.	.	.
8DJ	.	.	.	.	.	.	.	.	.	.	.
8DL	.	.	.	.	.	.	.	.	.	.	.
8DJ	.	8d]	n	.	8f#]	n	8a]	n	.	.	.
=95	=95	=95	=95	=95	=95	=95	=95	=95	=95	=95	=95
4.D	.	4.d	fu-	.	4.f#	fu-	4a	fu-	1r	.	.
.	.	.	.	.	.	.	8b	.	.	.	.
4.E	.	4.e	.	.	4.g#	.	4.g#	-fu	.	.	.
4D	.	4B	-fu	.	4d	-fu	4f#	fu-	.	.	.
=96	=96	=96	=96	=96	=96	=96	=96	=96	=96	=96	=96
2r	.	8r	.	.	8r	.	8g#	.	1r	.	.
.	.	2..c#	fu	.	2..e	fu	2..e	-fu	.	.	.
8BBL	tu	.	.	.	.	.	.	.	.	.	.
8C#	lu	.	.	.	.	.	.	.	.	.	.
8D	lu	.	.	.	.	.	.	.	.	.	.
8EJ	lu	.	.	.	.	.	.	.	.	.	.
=97	=97	=97	=97	=97	=97	=97	=97	=97	=97	=97	=97
1D	fu-	1r	.	.	1r	.	1r	.	8AL	あ	.
.	.	.	.	.	.	.	.	.	8G#	せ	.
.	.	.	.	.	.	.	.	.	8B	ら	.
.	.	.	.	.	.	.	.	.	[8AJ	ない	.
.	.	.	.	.	.	.	.	.	8AL]	.	.
.	.	.	.	.	.	.	.	.	8G#	で	.
.	.	.	.	.	.	.	.	.	8G#	い	.
.	.	.	.	.	.	.	.	.	[8AJ	い	.
=98	=98	=98	=98	=98	=98	=98	=98	=98	=98	=98	=98
1AA	.	1r	.	.	1r	.	1r	.	8A]	.	.
.	.	.	.	.	.	.	.	.	8r	.	.
.	.	.	.	.	.	.	.	.	2r	.	.
.	.	.	.	.	.	.	.	.	16ALL	い	.
.	.	.	.	.	.	.	.	.	16B	つ	.
.	.	.	.	.	.	.	.	.	16c#	か	.
.	.	.	.	.	.	.	.	.	16dJJ	は	.
=99	=99	=99	=99	=99	=99	=99	=99	=99	=99	=99	=99
1D	-fu-	1r	.	.	1r	.	1r	.	8eL	な	.
.	.	.	.	.	.	.	.	.	16AL	た	.
.	.	.	.	.	.	.	.	.	[16AJJ	ば	.
.	.	.	.	.	.	.	.	.	16AKL]	.	.
.	.	.	.	.	.	.	.	.	8A	に	.
.	.	.	.	.	.	.	.	.	[16dJk	な	.
.	.	.	.	.	.	.	.	.	8dL]	っ	.
.	.	.	.	.	.	.	.	.	16c#L	て	.
.	.	.	.	.	.	.	.	.	16c#JJ	お	.
.	.	.	.	.	.	.	.	.	8BL	く	.
.	.	.	.	.	.	.	.	.	16AL	れ	.
.	.	.	.	.	.	.	.	.	[16c#JJ	よ	.
=100	=100	=100	=100	=100	=100	=100	=100	=100	=100	=100	=100
1C#	.	1r	.	.	1r	.	1r	.	4c#]	.	.
.	.	.	.	.	.	.	.	.	4r	.	.
.	.	.	.	.	.	.	.	.	2r	.	.
=101	=101	=101	=101	=101	=101	=101	=101	=101	=101	=101	=101
2D	-fu-	1r	.	.	1r	.	1r	.	8AL	.	ぼ
.	.	.	.	.	.	.	.	.	8G#	.	く
.	.	.	.	.	.	.	.	.	8B	.	ら
.	.	.	.	.	.	.	.	.	[8AJ	.	は
2E	.	.	.	.	.	.	.	.	8AL]	.	.
.	.	.	.	.	.	.	.	.	8G#	.	な
.	.	.	.	.	.	.	.	.	8G#	.	に
.	.	.	.	.	.	.	.	.	[8AJ	.	も
=102	=102	=102	=102	=102	=102	=102	=102	=102	=102	=102	=102
2AA	-uh-	1r	.	.	1r	.	1r	.	8A]	.	.
.	.	.	.	.	.	.	.	.	8r	.	.
.	.	.	.	.	.	.	.	.	2r	.	.
2AA	.	.	.	.	.	.	.	.	.	.	.
.	.	.	.	.	.	.	.	.	16ALL	.	み
.	.	.	.	.	.	.	.	.	16B	.	え
.	.	.	.	.	.	.	.	.	16c#	.	な
.	.	.	.	.	.	.	.	.	16dJJ	.	い
=103	=103	=103	=103	=103	=103	=103	=103	=103	=103	=103	=103
8D	-tan	8c#	tan	.	8e	tan	8g#	tan	8eL	.	み
4.r	.	4.r	.	.	4.r	.	4.r	.	16AK	.	ら
.	.	.	.	.	.	.	.	.	8A	.	い
.	.	.	.	.	.	.	.	.	8A	.	を
.	.	.	.	.	.	.	.	.	16AJk	.	ち
8E	tan	8B	tan	.	8d	tan	8g#	tan	8dL	.	か
4.r	.	4.r	.	.	4.r	.	4.r	.	16c#L	.	い
.	.	.	.	.	.	.	.	.	[16BJJ	.	あ
.	.	.	.	.	.	.	.	.	16BLL]	.	.
.	.	.	.	.	.	.	.	.	16AJ	.	っ
.	.	.	.	.	.	.	.	.	[8AJ	.	た
=104	=104	=104	=104	=104	=104	=104	=104	=104	=104	=104	=104
8AAL	dm	8r	.	.	8r	.	8r	.	2A]	.	.
8AA	.	4.A	la	.	4.f#	la	4.f#	la	.	.	.
8AA	.	.	.	.	.	.	.	.	.	.	.
8AAJ	.	.	.	.	.	.	.	.	.	.	.
8BBL	.	4d	la	.	4f#	la	4g#	la	2r	.	.
8C#	.	.	.	.	.	.	.	.	.	.	.
8D	.	4d	la	.	4f#	la	4a	la	.	.	.
8EJ	.	.	.	.	.	.	.	.	.	.	.
=105	=105	=105	=105	=105	=105	=105	=105	=105	=105	=105	=105
8r	.	8r	.	.	8r	.	8r	.	2.r	.	.
8.F#L	oh	8.f#L	oh	.	8.f#L	oh	8.f#L	oh	.	.	.
8.EJ	oh	8.c#J	oh	.	8.eJ	oh	8.g#J	oh	.	.	.
8.DL	oh	8.dL	oh	.	8.f#L	oh	8.aL	oh	.	.	.
8.C#	oh	8.e	oh	.	8.g#	oh	8.b	oh	.	.	.
.	.	.	.	.	.	.	.	.	8eL	ど	.
8BBJ	oh	8f#J	oh	.	8aJ	oh	8cc#J	oh	16dL	ん	.
.	.	.	.	.	.	.	.	.	16dJJ	な	.
=106	=106	=106	=106	=106	=106	=106	=106	=106	=106	=106	=106
4AA	dm	4r	.	.	4r	.	4r	.	2c#	ー	.
8.AAL	.	2.e	ah	.	2.a	ah	2.cc#	ah	.	.	.
16AAJk	.	.	.	.	.	.	.	.	.	.	.
16r	.	.	.	.	.	.	.	.	8r	.	.
16AAKL	.	.	.	.	.	.	.	.	.	.	.
8AAJ	.	.	.	.	.	.	.	.	8AL	み	.
8AAL	.	.	.	.	.	.	.	.	8A	ら	.
8AAJ	.	.	.	.	.	.	.	.	8aJ	い	.
=107	=107	=107	=107	=107	=107	=107	=107	=107	=107	=107	=107
4C#	.	4r	.	.	4r	.	4r	.	8aL	が	.
.	.	.	.	.	.	.	.	.	[8g#J	ー	.
8.C#L	.	4e	la	.	4g#	la	4b	la	2g#]	.	.
16C#Jk	.	.	.	.	.	.	.	.	.	.	.
16r	.	4f#	la	.	4f#	la	4cc#	la	.	.	.
16C#KL	.	.	.	.	.	.	.	.	.	.	.
8C#J	.	.	.	.	.	.	.	.	.	.	.
8C#L	.	4g#	la	.	4e	la	4g#	la	8r	.	.
8C#J	.	.	.	.	.	.	.	.	8g#	こ	.
=108	=108	=108	=108	=108	=108	=108	=108	=108	=108	=108	=108
4D	.	4r	.	.	4r	.	4r	.	8aL	ち	.
.	.	.	.	.	.	.	.	.	8a	ら	.
8.DL	.	4B	taan	.	4f#	tan	4a	tan	8a	を	.
.	.	.	.	.	.	.	.	.	8aJ	の	.
16DJk	.	.	.	.	.	.	.	.	.	.	.
8.EL	.	4r	.	.	4r	.	4r	.	8.bL	ぞい	.
8.E	.	.	.	.	.	.	.	.	8.g#	て	.
.	.	4c#	tan	.	4e	tan	4g#	tan	.	.	.
8EJ	.	.	.	.	.	.	.	.	8f#J	る	.
=109	=109	=109	=109	=109	=109	=109	=109	=109	=109	=109	=109
4AA	.	4r	.	.	4r	.	4r	.	8.f#L	か	.
.	.	.	.	.	.	.	.	.	16f#Jk	な	.
8.AAL	.	4e	lu	.	4g#	lu	4cc#	lu	4e	ー	.
16AAJk	.	.	.	.	.	.	.	.	.	.	.
16r	.	4c#	lu	.	4a	lu	4a	lu	8r	.	.
16AAKL	.	.	.	.	.	.	.	.	.	.	.
8AAJ	.	.	.	.	.	.	.	.	8eL	き	.
8AAL	.	4A	lu	.	4f#	lu	4f#	lu	8e	み	.
8AAJ	.	.	.	.	.	.	.	.	8eJ	の	.
=110	=110	=110	=110	=110	=110	=110	=110	=110	=110	=110	=110
4.D	tu	4.A	-tu	.	4.c#	-tu	4.e	-tu	8eL	つ	.
.	.	.	.	.	.	.	.	.	8d	よ	.
.	.	.	.	.	.	.	.	.	8c#	さ	.
8D	tu	8A	tu	.	8c#	tu	8e	tu	8aJ	と	.
4r	.	4r	.	.	4r	.	4r	.	8r	.	.
.	.	.	.	.	.	.	.	.	8eL	ぼ	.
4D	tu	4A	tu	.	4c#	tu	4e	tu	8e	く	.
.	.	.	.	.	.	.	.	.	8eJ	の	.
=111	=111	=111	=111	=111	=111	=111	=111	=111	=111	=111	=111
4.C#	tu	4.A	-tu	.	4.c#	-tu	4.e	-tu	8eL	よ	.
.	.	.	.	.	.	.	.	.	8d	わ	.
.	.	.	.	.	.	.	.	.	8c#	さ	.
8C#	tu	8A	tu	.	8c#	tu	8e	tu	8aJ	を	.
4r	.	4r	.	.	4r	.	4r	.	8r	.	.
.	.	.	.	.	.	.	.	.	8aL	わ	.
4C#	tu	4A	tu	.	4c#	tu	4e	tu	8a	け	.
.	.	.	.	.	.	.	.	.	8aJ	あ	.
=112	=112	=112	=112	=112	=112	=112	=112	=112	=112	=112	=112
8DL	dm	2A	uh-	.	2c#	uh-	2f#	uh-	8aL	え	.
8D	.	.	.	.	.	.	.	.	8f#	ば	.
8D	.	.	.	.	.	.	.	.	8a	ど	.
8DJ	.	.	.	.	.	.	.	.	8f#J	ん	.
8EL	.	2c#	.	.	2e	.	2a	.	8aL	な	.
8E	.	.	.	.	.	.	.	.	8a	す	.
8E	.	.	.	.	.	.	.	.	8a	ご	.
8EJ	.	.	.	.	.	.	.	.	8aJ	い	.
=113	=113	=113	=113	=113	=113	=113	=113	=113	=113	=113	=113
4E	.	2.e	-uh	.	2.g#	-uh	2.b	-uh	8bL	こ	.
.	.	.	.	.	.	.	.	.	8g#	と	.
8.EL	.	.	.	.	.	.	.	.	8g#	が	.
.	.	.	.	.	.	.	.	.	8f#J	お	.
16EJk	.	.	.	.	.	.	.	.	.	.	.
4E	.	.	.	.	.	.	.	.	8f#L	き	.
.	.	.	.	.	.	.	.	.	8eJ	る	.
8.EL	.	4c#	uh	.	4e	uh	4a	uh	8aL	か	.
.	.	.	.	.	.	.	.	.	16dL	ー	.
16EJk	.	.	.	.	.	.	.	.	16dJJ	な	.
=114	=114	=114	=114	=114	=114	=114	=114	=114	=114	=114	=114
4AA	.	1A	uh	.	1c#	uh	1e	uh	2c#	ー	.
8.AAL	.	.	.	.	.	.	.	.	.	.	.
16AAJk	.	.	.	.	.	.	.	.	.	.	.
16r	.	.	.	.	.	.	.	.	4r	.	.
16AAKL	.	.	.	.	.	.	.	.	.	.	.
8AAJ	.	.	.	.	.	.	.	.	.	.	.
8AAL	.	.	.	.	.	.	.	.	8aL	ほ	.
8AAJ	.	.	.	.	.	.	.	.	8aJ	ら	.
=115	=115	=115	=115	=115	=115	=115	=115	=115	=115	=115	=115
4C#	.	2.B	uh	.	2e	uh	2.g#	uh	2g#	ー	.
8.C#L	.	.	.	.	.	.	.	.	.	.	.
16C#Jk	.	.	.	.	.	.	.	.	.	.	.
16r	.	.	.	.	8r	.	.	.	8r	.	.
16C#KL	.	.	.	.	.	.	.	.	.	.	.
8C#J	.	.	.	.	8dL	も	.	.	8f#L	も	.
8C#L	.	4r	.	.	8d	う	4r	.	8f#	う	.
8C#J	.	.	.	.	8eJ	こ	.	.	8g#J	こ	.
=116	=116	=116	=116	=116	=116	=116	=116	=116	=116	=116	=116
8DL	dm	2f#	oh-	.	8f#L	ん	2a	oh-	8aL	ん	.
8D	.	.	.	.	8g#	な	.	.	8b	な	.
8D	.	.	.	.	8e	に	.	.	8g#	に	.
8DJ	.	.	.	.	8f#J	も	.	.	8aJ	も	.
8EL	.	2g#	.	.	8eL	し	2b	.	8g#L	し	.
8E	.	.	.	.	8f#	あ	.	.	8a	あ	.
8E	.	.	.	.	8g#	わ	.	.	8b	わ	.
8EJ	.	.	.	.	[8aJ	せ	.	.	[8cc#J	せ	.
=117	=117	=117	=117	=117	=117	=117	=117	=117	=117	=117	=117
4AA	.	2.a	ah	.	2.a]	.	2.cc#	ah	2cc#]	.	.
8.AAL	.	.	.	.	.	.	.	.	.	.	.
16AAJk	.	.	.	.	.	.	.	.	.	.	.
16r	.	.	.	.	.	.	.	.	8r	.	.
16AAKL	.	.	.	.	.	.	.	.	.	.	.
8AAJ	.	.	.	.	.	.	.	.	8eL	い	.
8AAL	.	4r	.	.	4r	.	4r	.	8e	つ	.
8AAJ	.	.	.	.	.	.	.	.	8eJ	か	.
=118	=118	=118	=118	=118	=118	=118	=118	=118	=118	=118	=118
4.D	tu	4.A	-tu	.	4.c#	-tu	4.e	-tu	8eL	は	.
.	.	.	.	.	.	.	.	.	8d	ひ	.
.	.	.	.	.	.	.	.	.	8c#	と	.
8D	tu	8A	tu	.	8c#	tu	8e	tu	8aJ	り	.
4r	.	4r	.	.	4r	.	4r	.	8r	.	.
.	.	.	.	.	.	.	.	.	8eL	い	.
4D	tu	4A	tu	.	4c#	tu	4e	tu	8e	つ	.
.	.	.	.	.	.	.	.	.	8eJ	か	.
=119	=119	=119	=119	=119	=119	=119	=119	=119	=119	=119	=119
4.C#	tu	4.A	-tu	.	4.c#	-tu	4.e	-tu	8eL	は	.
.	.	.	.	.	.	.	.	.	8d	ふ	.
.	.	.	.	.	.	.	.	.	8c#	た	.
8C#	tu	8A	tu	.	8c#	tu	8e	tu	8aJ	り	.
4r	.	4r	.	.	4r	.	4r	.	8r	.	.
.	.	.	.	.	.	.	.	.	8aL	い	.
4C#	tu	4A	tu	.	4c#	tu	4e	tu	8a	や	.
.	.	.	.	.	.	.	.	.	[8cc#J	も	.
=120	=120	=120	=120	=120	=120	=120	=120	=120	=120	=120	=120
8C#L	dm	2c#	oh	.	2f#	oh	2a	oh	8cc#]	.	.
8C#	.	.	.	.	.	.	.	.	4a	と	.
8C#	.	.	.	.	.	.	.	.	.	.	.
8C#J	.	.	.	.	.	.	.	.	4cc#	もっ	.
8EL	.	2e	oh	.	2g#	oh	2b	oh	.	.	.
8E	.	.	.	.	.	.	.	.	4.b	と	.
8E	.	.	.	.	.	.	.	.	.	.	.
8EJ	.	.	.	.	.	.	.	.	.	.	.
=121	=121	=121	=121	=121	=121	=121	=121	=121	=121	=121	=121
8EL	.	8r	.	.	8r	.	8r	.	8r	.	.
8E	.	8EL	た	.	8eL	た	8eL	た	8eL	た	.
8E	.	8E	い	.	8e	い	8e	い	8e	い	.
8EJ	.	8EJ	せ	.	8eJ	せ	8eJ	せ	8eJ	せ	.
8EL	.	16c#KL	つ	.	16cc#KL	つ	16cc#KL	つ	16cc#KL	つ	.
.	.	8B	を	.	8b	を	8b	を	8b	を	.
8E	.	.	.	.	.	.	.	.	.	.	.
.	.	16AJk	ふ	.	16aJk	ふ	16aJk	ふ	16aJk	ふ	.
8E	.	8AL	やし	.	8aL	やし	8aL	やし	8aL	やし	.
8EJ	.	8BJ	て	.	8bJ	て	8bJ	て	8bJ	て	.
=122	=122	=122	=122	=122	=122	=122	=122	=122	=122	=122	=122
4AA	.	8r	.	.	4r	.	4.r	.	8.bL	ゆ	.
.	.	2..e	la	.	.	.	.	.	.	.	.
.	.	.	.	.	.	.	.	.	16bJk	こ	.
8.AAL	.	.	.	.	2.f#	la	.	.	[2a	う	.
.	.	.	.	.	.	.	[2a	la	.	.	.
16AAJk	.	.	.	.	.	.	.	.	.	.	.
16r	.	.	.	.	.	.	.	.	.	.	.
16AAKL	.	.	.	.	.	.	.	.	.	.	.
8AAJ	.	.	.	.	.	.	.	.	.	.	.
8AAL	.	.	.	.	.	.	.	.	8aL]	.	.
8AAJ	.	.	.	.	.	.	8a]	n	8f#J	.	.
=123	=123	=123	=123	=123	=123	=123	=123	=123	=123	=123	=123
4C#	.	8r	.	.	4r	.	4.r	.	1e	.	.
.	.	2..d	la	.	.	.	.	.	.	.	.
8.C#L	.	.	.	.	2.f#	la	.	.	.	.	.
.	.	.	.	.	.	.	[2a	la	.	.	.
16C#Jk	.	.	.	.	.	.	.	.	.	.	.
16r	.	.	.	.	.	.	.	.	.	.	.
16C#KL	.	.	.	.	.	.	.	.	.	.	.
8C#J	.	.	.	.	.	.	.	.	.	.	.
8C#L	.	.	.	.	.	.	.	.	.	.	.
8C#J	.	.	.	.	.	.	8a]	n	.	.	.
=124	=124	=124	=124	=124	=124	=124	=124	=124	=124	=124	=124
4D	.	8r	.	.	4r	.	4.r	.	1r	.	.
.	.	2..c#	la	.	.	.	.	.	.	.	.
8.DL	.	.	.	.	2.f#	la	.	.	.	.	.
.	.	.	.	.	.	.	[2a	la	.	.	.
16DJk	.	.	.	.	.	.	.	.	.	.	.
8DL	.	.	.	.	.	.	.	.	.	.	.
8D	.	.	.	.	.	.	.	.	.	.	.
8D	.	.	.	.	.	.	.	.	.	.	.
8DJ	.	.	.	.	.	.	8a]	.	.	.	.
=125	=125	=125	=125	=125	=125	=125	=125	=125	=125	=125	=125
8r	.	8r	.	.	8r	.	8r	.	1r	.	.
8AL	lu	8f#L	lu	.	8aL	lu	8aL	lu	.	.	.
8G#	lu	8e	lu	.	8g#	lu	8g#	lu	.	.	.
8F#J	lu	8dJ	lu	.	8f#J	lu	8f#J	lu	.	.	.
8EL	lu	8c#L	lu	.	8c#L	lu	8eL	lu	.	.	.
8D	lu	8B	lu	.	8B	lu	8d	lu	.	.	.
8C#	lu	8A	lu	.	8A	lu	8c#	lu	.	.	.
8BBJ	lu	8G#J	lu	.	8G#J	lu	8BJ	lu	.	.	.
=126	=126	=126	=126	=126	=126	=126	=126	=126	=126	=126	=126
*MM95	*	*MM95	*	*	*MM95	*	*MM95	*	*MM95	*	*
1r	.	1r	.	.	1r	.	1r	.	8r	.	.
.	.	.	.	.	.	.	.	.	8eL	す	.
.	.	.	.	.	.	.	.	.	8e	み	.
.	.	.	.	.	.	.	.	.	8eJ	な	.
.	.	.	.	.	.	.	.	.	8eL	れ	.
.	.	.	.	.	.	.	.	.	16dL	た	.
.	.	.	.	.	.	.	.	.	[16c#JJ	え	.
.	.	.	.	.	.	.	.	.	8c#L]	.	.
.	.	.	.	.	.	.	.	.	16BL	き	.
.	.	.	.	.	.	.	.	.	16dJJ	の	.
=127	=127	=127	=127	=127	=127	=127	=127	=127	=127	=127	=127
1r	.	1r	.	.	1r	.	1r	.	[8c#	ー	.
.	.	.	.	.	.	.	.	.	2c#]	.	.
.	.	.	.	.	.	.	.	.	4r	.	.
.	.	.	.	.	.	.	.	.	16eLL	プ	.
.	.	.	.	.	.	.	.	.	[16eJJ	ラッ	.
=128	=128	=128	=128	=128	=128	=128	=128	=128	=128	=128	=128
1r	.	1r	.	.	1r	.	1r	.	8eL]	.	.
.	.	.	.	.	.	.	.	.	16f#L	ト	.
.	.	.	.	.	.	.	.	.	[16dJJ	ホ	.
.	.	.	.	.	.	.	.	.	8dL]	.	.
.	.	.	.	.	.	.	.	.	16c#L	ー	.
.	.	.	.	.	.	.	.	.	[16dJJ	ム	.
.	.	.	.	.	.	.	.	.	4d]	.	.
.	.	.	.	.	.	.	.	.	8r	.	.
.	.	.	.	.	.	.	.	.	16r	.	.
.	.	.	.	.	.	.	.	.	16c#	み	.
=129	=129	=129	=129	=129	=129	=129	=129	=129	=129	=129	=129
1r	.	1r	.	.	1r	.	1r	.	8dL	ず	.
.	.	.	.	.	.	.	.	.	8c#	い	.
.	.	.	.	.	.	.	.	.	8B	ろ	.
.	.	.	.	.	.	.	.	.	8AJ	に	.
.	.	.	.	.	.	.	.	.	8c#L	あ	.
.	.	.	.	.	.	.	.	.	8B	い	.
.	.	.	.	.	.	.	.	.	8A	さ	.
.	.	.	.	.	.	.	.	.	8BJ	つ	.
=130	=130	=130	=130	=130	=130	=130	=130	=130	=130	=130	=130
1AA	fu-	1r	.	.	1r	.	1r	.	8r	.	.
.	.	.	.	.	.	.	.	.	8c#	「お	.
.	.	.	.	.	.	.	.	.	8c#L	か	.
.	.	.	.	.	.	.	.	.	16BL	え	.
.	.	.	.	.	.	.	.	.	[16c#JJ	り	.
.	.	.	.	.	.	.	.	.	8c#L]	.	.
.	.	.	.	.	.	.	.	.	8B	な	.
.	.	.	.	.	.	.	.	.	8c#	さ	.
.	.	.	.	.	.	.	.	.	8f#J	い」	.
=131	=131	=131	=131	=131	=131	=131	=131	=131	=131	=131	=131
1C#	.	1r	.	.	1r	.	1r	.	4.f#	と	.
.	.	.	.	.	.	.	.	.	4.e	.	.
.	.	.	.	.	.	.	.	.	8r	.	.
.	.	.	.	.	.	.	.	.	16eLL	ち	.
.	.	.	.	.	.	.	.	.	[16eJJ	い	.
=132	=132	=132	=132	=132	=132	=132	=132	=132	=132	=132	=132
2D	-uh-	2...r	.	.	2...r	.	2...r	.	8eL]	.	.
.	.	.	.	.	.	.	.	.	16f#L	さ	.
.	.	.	.	.	.	.	.	.	[16dJJ	く	.
.	.	.	.	.	.	.	.	.	8dL]	.	.
.	.	.	.	.	.	.	.	.	16c#L	ゆ	.
.	.	.	.	.	.	.	.	.	[16dJJ	れる	.
4..BB	.	.	.	.	.	.	.	.	4d]	.	.
.	.	.	.	.	.	.	.	.	8r	.	.
.	.	.	.	.	.	.	.	.	16r	.	.
16C#	-か	16c#	か	.	16c#	か	16c#	か	16c#	か	.
=133	=133	=133	=133	=133	=133	=133	=133	=133	=133	=133	=133
8DL	げ	8dL	げ	.	8dL	げ	8f#L	げ	8dL	げ	.
8C#	を	8c#	を	.	8e	を	8g#	を	8c#	を	.
8BB	ふ	8B	ふ	.	8d	ふ	8f#	ふ	8B	ふ	.
8AAJ	む	8AJ	む	.	8c#J	む	8eJ	む	8AJ	む	.
8C#L	し	8c#L	し	.	8c#L	し	8c#L	し	8c#L	し	.
8BB	あ	8A	あ	.	8d	あ	8f#	あ	8B	あ	.
8AA	わ	8A	わ	.	8c#	わ	8e	わ	8A	わ	.
[8AAJ	せ	[8AJ	せ	.	[8c#J	せ	[8eJ	せ	[8AJ	せ	.
=134	=134	=134	=134	=134	=134	=134	=134	=134	=134	=134	=134
1AA]	.	1A]	.	.	1c#]	.	1e]	.	1A]	.	.
=135	=135	=135	=135	=135	=135	=135	=135	=135	=135	=135	=135
1r	.	1r	.	.	1r	.	1r	.	1r	.	.
==	==	==	==	==	==	==	==	==	==	==	==
*-	*-	*-	*-	*-	*-	*-	*-	*-	*-	*-	*-
